X:1
T:Mrs. Robert Chambers
T:Mrs. Robert Chambers
T:William Marshall
C:William Marshall
L:1/8
M:4/4
K:G
V:1 treble 
V:1
 b | dBGc (Bc/d/) BG | Ggfg aAAg | dBGc (Bc/d/) BG | Ag[df]a T[Bg]2 [Bg] :| a | bggb affa | %7
 gedB [Ge]A[FA]g | bggb affd | egfa Tg2 ga | bggb affa | gedB [Ge]A[FA]g | GBAc Bdce | %13
 [Bd]g[cf]a g2 g || %14

